X:93
T:Fahey's
Z: id:dc-reel-85
M:C
L:1/8
K:G Major
B|AGEG DG,B,D|BAGA BedB|AGED B,DA,D|B,A,A,2 B,EED|!
E2DE GEDB,|D2B,E DG,B,D|EDEG DEGA|BdAB G3:|!
B|dGG2 EGDC|B,DGB dGBd|ecc2 AcFA|DAFA fed^c|!
dGG2 EGDC|B,DGB dGBd|ecc2 ecge|dBcA G3:|!

